brandFactory_export/2.Regular/Lapiz boligrafo _2Regular.svg

<?xml version="1.0" encoding="UTF-8"?>
<svg width="24px" height="24px" viewBox="0 0 24 24" version="1.1" xmlns="http://www.w3.org/2000/svg" xmlns:xlink="http://www.w3.org/1999/xlink">
    <title>2.Regular/Lapiz boligrafo _2Regular</title>
    <g id="Symbols" stroke="none" stroke-width="1" fill="none" fill-rule="evenodd">
        <g id="2.Regular/Lapiz-boligrafo-_2Regular" fill="#5CB615" fill-rule="nonzero">
            <path d="M20.9478992,7.64705882 L20.1478992,8.44369748 L15.1294118,3.4789916 L15.9495798,2.66554622 C18.1848739,0.450420168 20.087395,1.82521008 20.8067227,2.5210084 C20.8941176,2.60840336 20.9915966,2.70588235 21.0722689,2.78991597 C21.7714286,3.51932773 23.1663866,5.45210084 20.9478992,7.64705882 L20.9478992,7.64705882 Z M1.82184874,20.605042 L2.98151261,21.7546218 L1.60336134,22.0067227 L1.82184874,20.605042 Z M4.91428571,17.5865546 L2.8907563,15.5865546 L14.097479,4.50084034 L16.1176471,6.50084034 L4.91428571,17.5865546 Z M4.72268908,21.4352941 L2.09411765,18.8336134 L2.35966387,17.1058824 L6.42017304,21.1226891 C6.42352941,21.1226891 4.72268908,21.4352941 4.72268908,21.4352941 L4.72268908,21.4352941 Z M7.9394958,20.5815126 L5.94285714,18.6084034 L17.1462185,7.52268908 L19.1126058,9.46890756 C19.1159664,9.46890756 7.9394958,20.5815126 7.9394958,20.5815126 L7.9394958,20.5815126 Z M22.1243697,1.79159664 C22.0268908,1.6907563 21.9260504,1.58991597 21.8252101,1.49243697 C20.1781513,-0.107563025 17.4991597,-0.91092437 14.9142857,1.64705882 L1.34453782,15.0756303 C1.28067227,15.1361345 1.2302521,15.210084 1.19663866,15.2907563 C1.18655462,15.3176471 1.17983193,15.3445378 1.17310924,15.3714286 C1.16302521,15.405042 1.14621849,15.4386555 1.1394958,15.4722689 L0.0100840336,22.7932773 C-0.0268907563,23.0252101 0.0537815126,23.2605042 0.225210084,23.4218487 C0.396638655,23.5831933 0.635294118,23.6537815 0.863865546,23.6134454 L7.90588235,22.3193277 C7.91932773,22.3193277 7.92941176,22.3260504 7.94285714,22.3260504 C8.07394958,22.3226891 8.19831933,22.2823529 8.3092437,22.2117647 C8.32268908,22.205042 8.33613445,22.1915966 8.35294118,22.1848739 C8.38991597,22.1613445 8.4302521,22.1445378 8.4605042,22.1142857 C8.46386555,22.1109244 8.46722689,22.1042017 8.47058824,22.1008403 C8.47731092,22.0941176 8.48739496,22.087395 8.49411765,22.0806723 L21.9865546,8.66890756 C24.5378151,6.13781513 23.7310924,3.45882353 22.1243697,1.79159664 Z" id="Lapiz-boligrafo-_2Regular"></path>
        </g>
    </g>
</svg>

<svg width="24" height="24" viewBox="0 0 24 24" xmlns="http://www.w3.org/2000/svg"><path d="M20.948 7.647l-.8.797-5.019-4.965.82-.813c2.236-2.216 4.138-.84 4.858-.145.087.087.185.185.265.269.7.73 2.094 2.662-.124 4.857zM1.822 20.605l1.16 1.15-1.379.252.219-1.402zm3.092-3.018l-2.023-2L14.097 4.5l2.02 2L4.915 17.587zm-.191 3.848l-2.629-2.601.266-1.728 4.06 4.017-1.697.312zm3.216-.853l-1.996-1.974L17.146 7.523l1.967 1.946c.003 0-11.174 11.113-11.174 11.113zm14.185-18.79c-.097-.101-.198-.202-.299-.3-1.647-1.6-4.326-2.403-6.91.155L1.344 15.076a.632.632 0 00-.148.215.73.73 0 00-.024.08c-.01.034-.027.068-.034.101L.01 22.793a.71.71 0 00.215.629c.172.161.41.232.639.191l7.042-1.294c.013 0 .023.007.037.007a.713.713 0 00.366-.114c.014-.007.027-.02.044-.027.037-.024.077-.04.108-.07l.01-.014c.006-.007.016-.014.023-.02L21.987 8.669c2.55-2.531 1.744-5.21.137-6.877z" fill="#5CB615" fill-rule="nonzero"/></svg>
